icons/line/chart-pie.svg

<svg width="24" height="24" viewBox="0 0 24 24" fill="none" xmlns="http://www.w3.org/2000/svg">
<path fill-rule="evenodd" clip-rule="evenodd" d="M4 12C4 8.26828 6.55399 5.0934 10 4.19824V11C10 12.6569 11.3431 14 13 14H19.8018C18.9066 17.446 15.7317 20 12 20C7.58172 20 4 16.4183 4 12ZM12 4.11663C12 2.96749 10.9625 1.90788 9.6662 2.22017C5.26441 3.28061 2 7.28491 2 12C2 17.5228 6.47715 22 12 22C16.7151 22 20.7194 18.7356 21.7798 14.3338C22.0921 13.0375 21.0325 12 19.8834 12H13C12.4477 12 12 11.5523 12 11V4.11663ZM15 3C14.4477 3 14 3.44771 14 4V9C14 9.55228 14.4477 10 15 10H20C20.2996 10 20.5834 9.86567 20.7733 9.63399C20.9633 9.4023 21.0393 9.09766 20.9806 8.80388C20.7902 7.85223 20.2873 6.45038 19.365 5.26193C18.4288 4.05545 16.9971 3 15 3ZM16 8V5.15458C16.7221 5.3891 17.3079 5.87329 17.785 6.48806C18.1543 6.96395 18.4394 7.49733 18.647 8H16Z" fill="currentColor"/>
</svg>

<svg width="24" height="24" fill="none" xmlns="http://www.w3.org/2000/svg"><path fill-rule="evenodd" clip-rule="evenodd" d="M4 12c0-3.732 2.554-6.907 6-7.802V11a3 3 0 003 3h6.802c-.895 3.446-4.07 6-7.802 6a8 8 0 01-8-8zm8-7.883c0-1.15-1.037-2.21-2.334-1.897C5.264 3.28 2 7.285 2 12c0 5.523 4.477 10 10 10 4.715 0 8.72-3.264 9.78-7.666.312-1.296-.748-2.334-1.897-2.334H13a1 1 0 01-1-1V4.117zM15 3a1 1 0 00-1 1v5a1 1 0 001 1h5a1 1 0 00.98-1.196c-.19-.952-.693-2.354-1.615-3.542C18.429 4.055 16.997 3 15 3zm1 5V5.155c.722.234 1.308.718 1.785 1.333.37.476.654 1.01.862 1.512H16z" fill="currentColor"/></svg>
